X:62
T:Maudabawn Chapel
R:reel
C:Ed Reavy (1898-1988)
Z:id:hn-reel-62
M:C|
K:Edor
~G3D E2DB, | G,A,B,D EB,DB, | G,A,B,D GABd | gabg eaaf |
gabg efge | dged B^cde | g2fa gedB | A=cBA GEED :|
|: E2BE dEBE | E2BE AFDF | ~E3F GFGB | AF~F2 DF~F2 |
EBBA ~B3A | BAGA B^cde | ~f3a gfe^c | dBAF GEED :|
P:Variations:
|: G2FG EGDB, | G,A,B,D EGDB, | G,A,B,D EGBd | gbag ea~a2 |
gbag eage | dged B^cde | g2fa gedB | A=cBA GEED :|
|: E2BE dEBE | Ed^cB AFDF | ~E3F GFGB | AFDF A,DFD |
EBBA B^cdA | BAGA B^cde | f2af gfe^c | dBAF GEED :|
P:More variations
|: G3F EDB,A, | G,A,B,D EDB,A, | G,A,B,D GABd | gbbg eaaf | 
~g3a (3bag af | gfed B^cd2 | (3efg fa gedB | A=cBA GEED :|
|: E2BE E2BE | GABG AFDF | ~E3F ~G3B | AF~F2 dFAF |
EB~B2 dB~B2 | BAGA B^cde | ~f3d gfe^c | dBAF BEED :|

